static/images/footer/youtube.svg

<svg width="36" height="36" fill="none" xmlns="http://www.w3.org/2000/svg"><path d="M15 22.5l7.785-4.5L15 13.5v9zm17.34-11.745c.195.705.33 1.65.42 2.85.105 1.2.15 2.235.15 3.135L33 18c0 3.285-.24 5.7-.66 7.245-.375 1.35-1.245 2.22-2.595 2.595-.705.195-1.995.33-3.975.42-1.95.105-3.735.15-5.385.15L18 28.5c-6.285 0-10.2-.24-11.745-.66-1.35-.375-2.22-1.245-2.595-2.595-.195-.705-.33-1.65-.42-2.85a36.09 36.09 0 01-.15-3.135L3 18c0-3.285.24-5.7.66-7.245.375-1.35 1.245-2.22 2.595-2.595.705-.195 1.995-.33 3.975-.42 1.95-.105 3.735-.15 5.385-.15L18 7.5c6.285 0 10.2.24 11.745.66 1.35.375 2.22 1.245 2.595 2.595z" fill="#fff"/></svg>

<svg width="36" height="36" viewBox="0 0 36 36" fill="none" xmlns="http://www.w3.org/2000/svg">
<path d="M15 22.5L22.785 18L15 13.5V22.5ZM32.34 10.755C32.535 11.46 32.67 12.405 32.76 13.605C32.865 14.805 32.91 15.84 32.91 16.74L33 18C33 21.285 32.76 23.7 32.34 25.245C31.965 26.595 31.095 27.465 29.745 27.84C29.04 28.035 27.75 28.17 25.77 28.26C23.82 28.365 22.035 28.41 20.385 28.41L18 28.5C11.715 28.5 7.8 28.26 6.255 27.84C4.905 27.465 4.035 26.595 3.66 25.245C3.465 24.54 3.33 23.595 3.24 22.395C3.135 21.195 3.09 20.16 3.09 19.26L3 18C3 14.715 3.24 12.3 3.66 10.755C4.035 9.405 4.905 8.535 6.255 8.16C6.96 7.965 8.25 7.83 10.23 7.74C12.18 7.635 13.965 7.59 15.615 7.59L18 7.5C24.285 7.5 28.2 7.74 29.745 8.16C31.095 8.535 31.965 9.405 32.34 10.755Z" fill="white"/>
</svg>
